X:11
T:Nothing
S:John Moore's Book 1
Z:Transcribed by Paul Barber-Riley  March 2016
M:2/4
L:1/8
K:C
%%VWML: Moore1-4493-p7-0
F:http://www.vwml.org/record/Moore1/4493/p7
dfAc | BA/B/ G2 | GBeg | fe/f/ d2 |
ff/a/ gg | ee/g/ ff | dd/f/ ee | cc d2:|
e2 d/c/B/A/ | ee cA | a2 gfed | aa fd |
ff/a/ gg | ee/g/ ff | dd/f/ ee | cc d2 :|
